!!!OTL: Soldatenlos (Band 1), S. 147
!!!id: P0823
**kern
*clefG2
*k[f#c#]
*D:
{8.a
16g
8f#
8d
8d
8e
4.f#}
=1
{8d
8e
8d
8c#
8d
4e
8d}
=2
{8a
8a
8a
8a
8a
4.b}
=3
{8a
8dd
8a
8a
8g
4f#
8e}
=4
{8d
8e
8d
8e
8f#
4.g
8A}
=5
{8f#
8e
8.f#
16g
4.a}
=6
{8a
8b
8a
8b
8cc#
8dd}
=7
{8a
8b
8g
4f#
4e
4d}
=8
{8d
8e
8d
8e
8f#
4.g}
=9
{8A
8f#
8e
8.f#
16g
4.a}
=10
{8a
8b
8a
8b
8cc#
8dd}
=11
{8a
8b
8g
4f#
4e
4d}
==
*-
!!!minrhy: 16
!!!meters: FREI]  ZZ[12 interpreted as [0/4, 0/4]
!!!cut: Soldatenlos (Band 1), S. 147
!!!reg: Lothringen
!!!trd: PINCK, Louis: Verklingende Weisen, Bd 1, Metz 1928
!!!rhy1: X_.XX_X_X_X_X__.
!!!rhy2: X_X_X_X_X_X__X_
!!!key: P0823  16  D FREI]  ZZ[12
!!!mod: HEPTATONIK IONISCH]  AMBITUS[11
!!!kad: 3162-55+1145+11
!!!akz: 5_1_5_5_1_3_5_5_1_-5_5_5_
!!!fot: 'a__b__c__d__e__es'es'f__ev_ew_es'f__
!!!for: 'a__b__c__b__d__e__f__g__bw_h__f__g__
!!!fok: 'Vd_-__/__^d_^d_/__/__\__/__/__/__\__
!!!fkt: Soldatenlied, Tod
!! LOTH VKL
!! PR[9] 2K[15] 2G[18] 3K[6] 3G[3] 4A[3] 4Ü[0] 5A[0] 6K[0] 6G[0]
!! 7K[0] 7G[0] 8A[0] MEHR[0] SI[44] ABS[68] SR[32] SP[12]
!! ST[14] 2k[21] 2g[22] 3k[0] 3g[3] 4d[0] 4ü[0] 5d[1] 6k[0] 6g[0]
!! 7k[0] 7g[0] 8d[0] mehr[0] si[47] dm[-3] sr[43] sp[4]
!! 1F[58] 2F[34] 3F[3] 4F[0] LF[0] 2P[5] 3P[0] 4P[0] TRI[0] DF[4] AB[73]
!! TF[0] U3K[0] U3[0] U4[0] U4Ü[0] U5[3] U6K[0] U6[0] U7K[0] U7[6]
!! N1[17] N2K[0] N2[26] N3K[22] N3[0] N4[12] N4Ü[0] N5[12] N6K[3] N6[0]
!!!n7k: 0] N7[0] O1[0] O2K[0] O2[0] O3K[0] O3[0] HÖ[0
